X:1
T:Jesus Loves Me, This I Know
T:Jesus Loves Me, This I Know
T:Copyright © 
Z:Copyright ©
%%score ( 1 2 ) ( 3 4 )
L:1/8
M:4/4
K:C
V:1 treble nm="SOPRANO ALTO" snm="S. A."
V:2 treble 
V:3 bass nm="TENOR BASS" snm="T. B."
V:4 bass 
V:1
"^C""^1""^2""^3" G2 E2 E2"^G" D2 |"^C" E2 G2 G4 |"^F" A2 A2 c2 A2 |"^F/C" A2"^C" G2 G4 | %4
w: Je- sus loves me,|this I know,|for the Bi- ble|tells me so.|
w: Je- sus loves me—|he who died|heav- en's gate to|o- pen wide.|
w: Je- sus loves me,|this I know,|as he loved so|long a- go,|
 G2 E2 E2"^G" D2 |"^C" E2 G2 G4 |"^F" A2 A2"^C" G2 C2 |"^C/G" E2"^G7" D2"^C" C4 || %8
w: Lit- tle ones to|him be- long;|they are weak, but|he is strong.|
w: He will wash a-|way my sin,|let his lit- tle|child come in.|
w: tak- ing chil- dren|on his knee,|say- ing, "Let them|come to me."|
"^Refrain" G4 E2 G2 |"^F" A2 c6 |"^C" G4 E2 C2 | E2"^G" D6 |1"^C" G4 E2 G2 |"^F" A2 c4 A2 | %14
w: Yes, Je- sus|loves me!|Yes, Je- sus|loves me!|Yes, Je- sus|loves me! The|
w: ||||||
w: ||||||
"^C/G" G2 C2 E2"^G7" D2 |"^C" C8 |] %16
w: Bi- ble tells me|so.|
w: ||
w: ||
V:2
 E2 C2 C2 B,2 | C2 E2 E4 | F2 F2 A2 F2 | F2 E2 E4 | E2 C2 C2 B,2 | C2 E2 E4 | F2 F2 E2 C2 | %7
 C2 B,2 C4 || E4 C2 E2 | F2 F6 | E4 C2 C2 | C2 B,6 |1 C4 C2 E2 | F2 F4 C2 | C2 C2 C2 B,2 | C8 |] %16
V:3
 G,2 G,2 G,2 G,2 | G,2 C2 C4 | C2 C2 C2 C2 | C2 C2 C4 | C2 G,2 G,2 G,2 | G,2 C2 C4 | C2 C2 C2 G,2 | %7
 G,2 F,2 E,4 || G,4 G,2 C2 | C2 A,6 | C4 G,2 G,2 | G,2 G,6 |1 %12
"^Copyright 2008 Hymnary.org. You may use this score in personal and corporate worship settings. Commercial use and republication are prohibited without written consent." E,4 G,2 C2 | %13
 C2 A,4 F,2 | E,2 E,2 G,2 F,2 | E,8 |] %16
V:4
 C,2 C,2 C,2 G,,2 | C,2 C,2 C,4 | F,2 F,2 F,2 F,2 | C,2 C,2 C,4 | C,2 C,2 C,2 G,,2 | C,2 C,2 C,4 | %6
 F,2 F,2 C,2 E,2 | G,,2 G,,2 C,4 || C,4 C,2 C,2 | F,2 F,6 | C,4 C,2 E,2 | G,2 G,6 |1 C,4 C,2 C,2 | %13
 F,2 F,4 F,,2 | G,,2 A,,2 G,,2 G,,2 | C,8 |] %16

